ui/icon/svg/aperture-sharp.svg

<svg viewBox="0 0 512 512" xmlns="http://www.w3.org/2000/svg"><path d="m216 48 129.49 128.18v-128.18zm-34.53 10.38-101.47 75.62h176zm154.53 285.62h128v-128zm118-162-76-102v176zm-406-16v128l128-128zm282 288 102-76h-176zm-272-124 76 102v-176zm287.49-107.88-55.55-55.46h-67.88l-55.55 55.46v67.76l55.62 55.52c.44 0 .88-.06 1.33-.06h66.48l55.55-55.46zm-179.51 113.97.02 127.91h128z"/></svg>

<svg xmlns="http://www.w3.org/2000/svg" class="ionicon" viewBox="0 0 512 512"><title>Aperture</title><path d="M216 48l129.49 128.18V48H216zM181.47 58.38L80 134h176l-74.53-75.62zM336 344h128V216L336 344zM454 182L378 80v176l76-74zM48 166v128l128-128H48zM330 454l102-76H256l74 76zM58 330l76 102V256l-76 74zM345.49 222.12l-55.55-55.46h-67.88l-55.55 55.46v67.76l55.62 55.52c.44 0 .88-.06 1.33-.06h66.48l55.55-55.46zM165.98 336.09L166 464h128L165.98 336.09z"/></svg>
